X:1
T:Rachael Rae
C:John Lowe (ca.1815)
M:4/4
L:1/8
R:Reel
Z:Betsy Hooper
K:D
|:"D"D2FA "(A)"d2Ac | "D"d2fd "A7"e2cA | "D"d2AF  "G"BAGF | "A7"EFGA "D"FDD2 :|
[|"D"defg      a2fd | "G"g2bg "A7"e2cA | "D"defg     a2fd | "A7"egfe "D"fdd2 ||
||"D"defg      fafd | "G"g2bg "A7"e2cA | "D"d2AF  "G"BAGF | "A7"EFGA "D"FDD2 |]
